X:8
T:Congress (reel), The
I:titlefont Times-Roman 24
I:partsfont Times-Roman 20
M:4/4
L:1/8
R: reel
O:Trad. (26.11.2014/NS)
K:Ador
|:"Am"eAAG ABcd|eaaf gedg|eAA2 eAcA|"G"BGGA BABd|
"Am"eAAG ABcd|eaaf gedB|"G"cBcd eged|cABG "Am"A2Bd:|
|:"Am"eaag a2ag|eaag e2d2|"G"egdg egdg|eaaf gedg|
"F"eaag a2ag|eaaf gedB|"G"c2cd eged|cABG "Am"A2Bd:|
%%vskip
P:The Banshee
K:Gmaj
|:"G"G2 GD EDB,D|GFGB d2 Bd|"G"e2ed "Em"BAGA|1,3 "C"BAGE "D"EDDE:|2,4 "C"BAGE "D"EDD2||
|:"Am"eaag efge|"Em"dBBA B2 Bd|eB ~B2 Bgfg|eBBA B2 Bd|
"Am"eaag efge|"Em"dBBA B2 Bd|"G"e2ed "Em"BAGA|1 "C"BAGE "D"EDD2:|2 "C"BAGE "D"EDDE||
%%vskip
K:Edor
P:Cooley's
|:D2| "Em" EBBA B2 EB| B2 AB dBAG| "D" F/E/D AD BDAD| FDAD dAFD|
"Em" EBBA B2 EB| B2 AB defg| "D" afec dBAF| DEFD "Em" E2:|
|:gf| "Em" eB B2 efge| eB B2 gedB| "D" A2 FA DAFA| A2 FA defg|
"Am" eB B2 eBgB| eB B2 defg| "Bm" afec dBAF| "D" DEFD "Em" E2:|

